logo/looker-icon.svg

<?xml version="1.0" encoding="UTF-8"?>
<svg width="256px" height="413px" viewBox="0 0 256 413" version="1.1" xmlns="http://www.w3.org/2000/svg" xmlns:xlink="http://www.w3.org/1999/xlink" preserveAspectRatio="xMidYMid">
    <g>
        <path d="M127.128486,0 C113.797782,0.0058471726 101.556004,7.36006381 95.2905253,19.126605 C89.0250469,30.8931461 89.7564532,45.1553578 97.1927396,56.2192339 L112.606279,40.8274339 C112.096845,39.2920176 111.839876,37.6841242 111.845385,36.066411 C111.845385,27.6618072 118.658663,20.8485297 127.063267,20.8485297 C135.467871,20.8485297 142.281148,27.6618072 142.281148,36.066411 C142.281148,44.4710148 135.467871,51.2842924 127.063267,51.2842924 C125.452814,51.2878362 123.852389,51.0308872 122.323984,50.5233983 L106.932184,65.9151983 C119.749817,74.6084738 136.686605,74.1479499 149.012895,64.7709924 C161.339185,55.3940349 166.302744,39.1943452 161.345227,24.5216568 C156.387711,9.84896827 142.61604,-0.0205786569 127.128486,0 L127.128486,0 Z" fill="#34A853"></path>
        <path d="M112.780303,105.112113 C112.803794,92.9288201 108.858278,81.0693768 101.540706,71.3284161 L81.5400617,91.3073204 C87.7949796,102.747737 85.5440645,116.967804 76.0616244,125.917131 L86.9315396,152.483203 C103.037113,142.110661 112.772753,124.268811 112.780303,105.112113 Z" fill="#FBBC04"></path>
        <path d="M56.8870939,133.786949 L56.3653379,133.786949 C44.0975407,133.788013 33.1858466,125.990585 29.2128405,114.383946 C25.2398344,102.777307 29.0843199,89.9287712 38.7794013,82.4118404 C48.4744826,74.8949096 61.8756692,74.3722813 72.126715,81.1113398 L91.9317006,61.3063543 C72.6737207,45.6936654 45.4778243,44.4893124 24.9151409,58.3385684 C4.35245741,72.1878245 -4.75374244,97.8421492 2.47549859,121.556363 C9.70473962,145.270576 31.5737,161.482171 56.3653379,161.50524 C60.1906548,161.507115 64.0066702,161.128427 67.7570091,160.374762 L56.8870939,133.786949 Z" fill="#EA4335"></path>
        <path d="M127.88938,156.76595 C115.371706,156.753269 102.919887,158.577095 90.9316684,162.179168 L106.780005,200.897806 C113.678715,199.188192 120.760254,198.326726 127.86764,198.332506 C169.050784,198.344513 204.491034,227.444917 212.516351,267.838552 C220.541668,308.232187 198.917134,348.670095 160.866351,364.424121 C122.815568,380.178148 78.9350487,366.861058 56.0581359,332.616375 C33.1812232,298.371692 37.6787581,252.735993 66.8004566,223.615929 C72.8771111,217.558264 79.8143655,212.430409 87.3880761,208.398047 L71.7136583,169.788108 C13.2865745,198.402523 -14.3767247,266.297107 7.41546106,327.59645 C29.2076468,388.895793 93.5203541,424.092503 156.898395,409.404661 C220.276436,394.716818 262.550912,334.818559 255.157557,270.182291 C247.764201,205.546024 193.055814,156.741054 127.998079,156.74421 L127.88938,156.76595 Z" fill="#4285F4"></path>
    </g>
</svg>

<svg viewBox="0 0 256 413" xmlns="http://www.w3.org/2000/svg"><path fill="#34A853" d="M127.12 0c-13.34 0-25.58 7.36-31.84 19.12 -6.27 11.76-5.54 26.02 1.9 37.09l15.41-15.4c-.51-1.54-.77-3.15-.77-4.77 0-8.41 6.81-15.22 15.21-15.22 8.4 0 15.21 6.81 15.21 15.21 0 8.4-6.82 15.21-15.22 15.21 -1.62 0-3.22-.26-4.74-.77l-15.4 15.39c12.81 8.69 29.75 8.23 42.08-1.15 12.32-9.38 17.28-25.58 12.33-40.25C156.33 9.78 142.56-.09 127.07-.07v0Z"/><path fill="#FBBC04" d="M112.78 105.11c.02-12.19-3.93-24.05-11.24-33.79L81.53 91.29c6.25 11.44 4 25.66-5.48 34.6l10.86 26.56c16.1-10.38 25.84-28.22 25.84-47.38Z"/><path fill="#EA4335" d="M56.88 133.78h-.53c-12.27 0-23.18-7.8-27.16-19.41 -3.98-11.61-.13-24.46 9.56-31.98 9.69-7.52 23.09-8.04 33.34-1.31l19.8-19.81C72.63 45.65 45.43 44.45 24.87 58.3 4.3 72.14-4.8 97.8 2.43 121.51c7.22 23.71 29.09 39.92 53.88 39.94 3.82 0 7.64-.38 11.39-1.14l-10.87-26.59Z"/><path fill="#4285F4" d="M127.88 156.76c-12.52-.02-24.97 1.81-36.96 5.41l15.84 38.71c6.89-1.71 13.98-2.58 21.08-2.57 41.18.01 76.62 29.11 84.64 69.5 8.02 40.39-13.6 80.83-51.65 96.58 -38.06 15.75-81.94 2.43-104.81-31.81 -22.88-34.25-18.38-79.89 10.74-109.01 6.07-6.06 13.01-11.19 20.58-15.22l-15.68-38.61c-58.43 28.61-86.1 96.5-64.3 157.8 21.79 61.29 86.1 96.49 149.48 81.8 63.37-14.69 105.65-74.59 98.25-139.23 -7.4-64.64-62.11-113.45-127.16-113.44l-.11.02Z"/></svg>
